X:1
T:A Little Bit of Love
T:A Little Bit of Love
T:Edwin Othello Excell
T:Edwin Othello Excell,1904
T:Public Domain Courtesy of the Cyber Hymnal™
T:Public Domain Courtesy of the Cyber Hymnal™
C:Edwin Othello Excell
Z:Public Domain
Z:Courtesy of the Cyber Hymnal™
%%score ( 1 2 ) 3
L:1/8
Q:1/4=98
M:3/4
K:Ab
V:1 treble 
V:2 treble 
V:3 bass 
V:1
 [CA]>[DB] | [Ec]3 [Ec] [Fd]>[Ec] | [FB] F3 [Fc]>[FB] | [EA] E3 [EG]<[EA] | [EB]4 [CA]>[DB] | %5
w: 1.~Do you|know the world is|dy- ing For a|lit- tle bit of|love? Ev- ery-|
w: 2.~From the|poor of ev- ery|ci- ty, For a|lit- tle bit of|love, Hands are|
w: 3.~Down be-|fore their i- dols|fall- ing, For a|lit- tle bit of|love, Ma- ny|
w: 4.~While the|souls of men are|dy- ing, For a|lit- tle bit of|love, While the|
 [Ec]3 [Ec] [Fd]>[Ec] | [FB] F3 [Fc]>[FB] | [EA] E3 [EG]<[EB] | [EA]4 [EG]>[EA] | %9
w: where we hear the|sigh- ing For a|lit- tle bit of|love; For the|
w: reach- ing out for|pi- ty, For a|lit- tle bit of|love; Some have|
w: souls in vain are|call- ing For a|lit- tle bit of|love; If they|
w: child- ren, too, are|cry- ing, For a|lit- tle bit of|love, Stand no|
 [EB]3 [EB] [EA]>[GB] [Ac]4 [Ac]>[Ac] | [GB]3 [Ac] [Bd]>[de] |S [ce]4 [ce]>[Bd] | %12
w: love that rights a wrong, Fills the|heart with hope and|song; They have|
w: bur- dens hard to bear, Some have|sor- rows we would|share; Shall they|
w: die in sin and shame, Some- one|sure- ly is to|blame For not|
w: long- er id- ly by, You can|help them if you|try; Go, then|
 [Ac]<[Ac] [FB]2 [Fc]2 | [Fd]4 [Fc]>[FB] | [EA] E3 [EG]<[DB] | [CA]4!fine! ||"^Refrain" E>E | %17
w: wait- ed, oh, so|long, For a|lit- tle bit of|love.|For a|
w: fal- ter and de-|spair For a|lit- tle bit of|love?|For a|
w: go- ing in His|name, With a|lit- tle bit of|love.|With a|
w: say- ing, “Here am|I,” With a|lit- tle bit of|love.|With a|
 [DE] [DE]3 [DG]<[DB] | [CA]4 [CA]>[DB] | [Ec] [CE]3 [B,=D]<[DB] | !fermata![DE]4!D.S.! |] %21
w: lit- tle bit of|love, For a|lit- tle bit of|love,|
w: lit- tle bit of|love, For a|lit- tle bit of|love,|
w: lit- tle bit of|love, With a|lit- tle bit of|love,|
w: lit- tle bit of|love, With a|lit- tle bit of|love,|
V:2
 x2 | x6 | x F3 x2 | x E3 x2 | x6 | x6 | x F3 x2 | x E3 x2 | x6 | x12 | x6 | x6 | x6 | x6 | %14
 x E3 x2 | x4 || E>E | x6 | x6 | x6 | x4 |] %21
V:3
 [A,,A,]>[A,,A,] | [A,,A,]3 [A,,A,] [A,,A,]>[A,,A,] | [D,A,] [D,A,]3 [D,E]>[D,D] | %3
 [E,C] [E,C]3 [E,B,]<[E,C] | [E,D]4 [A,,B,]>[A,,B,] | [A,,A,]3 [A,,A,] [A,,A,]>[A,,A,] | %6
 [D,A,] [D,A,]3 [D,E]>[D,D] | [E,C] [E,C]3 [E,B,]<[E,D] | [A,C]4 [E,B,]>[E,C] | %9
 [E,D]3 [E,D] [A,C]>[A,D] [A,E]4 [A,E]>[A,E] | [E,E]3 [E,E] [E,E]>[E,E] | [A,E]4 [A,E]>[A,E] | %12
 [A,E]<[A,E] [D,D]2 [C,E]2 | [B,,D]4 [D,E]>[D,D] | [E,C] [E,C]3 [E,B,]<[E,G,] | [A,,A,]4 || %16
 [C,A,]>[C,A,] | [B,,G,] [B,,G,]3 [E,B,]<[E,G,] | [A,,A,]4 [A,,E,]>[A,,E,] | %19
 [A,,A,] [A,,A,]3 [B,,A,]<[B,,A,] | !fermata![E,G,]4 |] %21

